; generated by PrusaSlicer 2.5.0-alpha3+win64 on 2022-10-09 at 19:16:20 UTC


;
;
; 

; external perimeters extrusion width = 0.68mm
; perimeters extrusion width = 0.68mm
; infill extrusion width = 0.68mm
; solid infill extrusion width = 0.68mm
; top infill extrusion width = 0.60mm
; first layer extrusion width = 0.63mm

M73 P0 R86
M107
M190 S85 ; set bed temperature and wait for it to be reached
G10 S230 P1 ; set temperature
;TYPE:Custom
;Set standby temperatures
G10 R200 P0
G10 R215 P1
G28 ; home all axes
G32 ; run bed.g -- probe bed and enable compensation
;workaround for toolchanger when using only one extruder
T1; select tool
G10 S230 P1 ; set temperature
M116 ; wait for temperature to be reached
G21 ; set units to millimeters
G90 ; use absolute coordinates
M82 ; use absolute distances for extrusion
G92 E0
;tool change macro
T1
G92 E0
; Filament gcode
M107
;LAYER_CHANGE
;Z:0.2
;HEIGHT:0.2
G1 Z.2 F18000
G1 E-.75 F600
G92 E0
G1 X66.92 Y87.401 F18000
G1 E.75 F600
;TYPE:Skirt/Brim
;WIDTH:0.63
G1 F2700
G1 X67.262 Y87.139 E.77098
G1 X68.294 Y86.667 E.82639
G1 X131.43 Y72.256 E3.9877
G1 X132.7 Y72.248 E4.0497
M73 P0 R85
G1 X133.489 Y72.426 E4.08919
G1 X202.274 Y99.422 E7.69634
G1 X203.079 Y99.946 E7.74322
G1 X203.696 Y100.599 E7.78708
G1 X204.007 Y101.11 E7.8163
G1 X204.523 Y102.392 E7.88375
G1 X204.614 Y102.968 E7.91218
G1 X204.625 Y103.533 E7.9398
G1 X204.478 Y104.383 E7.98192
G1 X200.492 Y114.554 E8.51517
G1 X200.031 Y115.284 E8.55731
G1 X199.574 Y115.761 E8.58957
G1 X199.082 Y116.132 E8.61964
G1 X197.527 Y116.801 E8.70227
G1 X196.948 Y116.894 E8.73092
G1 X196.341 Y116.901 E8.76052
G1 X195.661 Y116.794 E8.79413
G1 X186.75 Y113.329 E9.26086
G1 X178.287 Y134.919 E10.39288
G1 X192.872 Y148.905 E11.37928
G1 X193.125 Y149.278 E11.40132
G1 X193.458 Y150.02 E11.44101
G1 X193.635 Y150.84 E11.48197
G1 X193.638 Y151.677 E11.52281
G1 X193.536 Y152.178 E11.54778
G1 X192.927 Y153.735 E11.6294
G1 X192.651 Y154.211 E11.65626
G1 X192.054 Y154.859 E11.69926
G1 X191.311 Y155.371 E11.74331
G1 X190.552 Y155.679 E11.7833
G1 X189.949 Y155.786 E11.8132
G1 X176.077 Y155.79 E12.49036
G1 X175.2 Y155.638 E12.53383
G1 X174.351 Y155.303 E12.57837
G1 X173.566 Y154.783 E12.62435
G1 X167.298 Y148.793 E13.04756
G1 X160.579 Y146.143 E13.40012
G1 X160.038 Y145.796 E13.43152
G1 X159.524 Y145.32 E13.46568
G1 X159.056 Y144.68 E13.50443
G1 X158.507 Y143.414 E13.57176
G1 X158.369 Y142.741 E13.60533
G1 X158.351 Y142.102 E13.63651
G1 X158.514 Y141.189 E13.68178
G1 X171.761 Y107.434 E15.45191
G1 X137.883 Y94.138 E17.2285
G1 X124.672 Y127.799 E18.9937
G1 X124.009 Y128.778 E19.05141
G1 X123.135 Y129.529 E19.10767
G1 X122.16 Y130.01 E19.16073
G1 X101.788 Y134.669 E20.1809
G1 X100.397 Y134.635 E20.24883
G1 X99.354 Y134.308 E20.30215
G1 X98.479 Y133.775 E20.3522
G1 X71.973 Y109.183 E22.11722
G1 X47.22 Y135.862 E23.89382
G1 X73.802 Y160.525 E25.66394
G1 X74.345 Y161.277 E25.70922
G1 X74.605 Y161.86 E25.74039
G1 X74.774 Y162.527 E25.77396
G1 X74.828 Y163.905 E25.8413
G1 X74.684 Y164.686 E25.88004
G1 X74.428 Y165.337 E25.9142
G1 X74.09 Y165.885 E25.94561
G1 X69.187 Y171.188 E26.29816
G1 X66.139 Y179.304 E26.72138
G1 X65.657 Y180.113 E26.76735
G1 X65.037 Y180.783 E26.8119
G1 X64.313 Y181.301 E26.85537
G1 X51.822 Y187.316 E27.53214
G1 X51.027 Y187.511 E27.57214
G1 X50.342 Y187.524 E27.60558
G1 X49.27 Y187.325 E27.65879
G1 X48.78 Y187.114 E27.68482
G1 X48.421 Y186.9 E27.70524
G1 X47.078 Y185.698 E27.79324
G1 X46.502 Y184.855 E27.84307
G1 X46.385 Y184.559 E27.8586
G1 X46.137 Y183.536 E27.90998
G1 X46.128 Y182.833 E27.94427
G1 X46.194 Y182.385 E27.9664
G1 X53.266 Y163.456 E28.95282
G1 X36.273 Y147.676 E30.08482
G1 X29.846 Y154.579 E30.54523
G1 X29.291 Y154.992 E30.57901
G1 X28.64 Y155.309 E30.61436
G1 X28.071 Y155.48 E30.64337
G1 X26.527 Y155.564 E30.71884
G1 X25.781 Y155.433 E30.75582
G1 X25.042 Y155.143 E30.79455
G1 X24.421 Y154.74 E30.83072
G1 X16.227 Y147.085 E31.37808
G1 X15.902 Y146.573 E31.40769
G1 X15.593 Y145.832 E31.44689
G1 X15.462 Y145.169 E31.47988
G1 X15.426 Y144.042 E31.53492
G1 X15.572 Y143.2 E31.57667
G1 X15.789 Y142.628 E31.60653
G1 X16.096 Y142.091 E31.63672
G1 X66.512 Y87.713 E35.25657
G1 X66.849 Y87.455 E35.27728
G1 X67.202 Y87.921 F18000
G1 F2700
G1 X67.59 Y87.627 E35.30103
G1 X68.453 Y87.233 E35.34737
G1 X131.529 Y72.836 E38.50566
G1 X132.606 Y72.828 E38.55822
G1 X133.296 Y72.981 E38.59274
G1 X202.032 Y99.958 E42.19731
G1 X202.679 Y100.377 E42.23497
G1 X203.214 Y100.935 E42.27267
G1 X203.473 Y101.356 E42.29682
G1 X203.949 Y102.522 E42.35827
G1 X204.028 Y103 E42.38195
G1 X204.038 Y103.514 E42.40704
G1 X203.905 Y104.25 E42.44355
G1 X199.957 Y114.312 E42.97117
G1 X199.553 Y114.941 E43.00768
G1 X199.196 Y115.311 E43.03277
G1 X198.811 Y115.61 E43.05654
G1 X197.394 Y116.228 E43.13202
G1 X196.914 Y116.307 E43.15579
G1 X196.401 Y116.317 E43.18083
G1 X195.842 Y116.234 E43.20841
G1 X186.47 Y112.59 E43.69928
G1 X186.271 Y112.943 E43.71905
G1 X177.597 Y135.071 E44.87928
G1 X192.407 Y149.264 E45.88061
G1 X192.603 Y149.548 E45.89749
G1 X192.891 Y150.176 E45.93122
G1 X193.055 Y150.932 E45.96895
G1 X193.051 Y151.643 E46.00368
G1 X192.981 Y151.987 E46.02081
G1 X192.389 Y153.499 E46.10005
G1 X192.162 Y153.883 E46.12185
G1 X191.649 Y154.433 E46.15855
G1 X191.01 Y154.865 E46.19622
G1 X190.366 Y155.121 E46.23003
G1 X189.877 Y155.203 E46.25425
G1 X176.104 Y155.203 E46.92661
G1 X175.335 Y155.065 E46.96476
G1 X174.599 Y154.77 E47.00347
G1 X173.953 Y154.34 E47.04133
G1 X167.62 Y148.289 E47.46891
G1 X160.823 Y145.609 E47.82556
G1 X160.382 Y145.32 E47.85131
G1 X159.946 Y144.911 E47.88049
G1 X159.58 Y144.413 E47.91066
G1 X159.074 Y143.262 E47.97202
G1 X158.955 Y142.697 E48.00024
G1 X158.939 Y142.116 E48.02861
G1 X159.071 Y141.377 E48.06525
G1 X172.522 Y107.102 E49.86263
G1 X137.551 Y93.378 E51.69654
G1 X124.138 Y127.555 E53.48884
G1 X123.594 Y128.362 E53.53634
G1 X122.836 Y129.022 E53.58537
G1 X121.994 Y129.446 E53.63142
G1 X101.692 Y134.089 E54.64804
G1 X100.528 Y134.061 E54.70488
G1 X99.624 Y133.786 E54.75102
G1 X98.855 Y133.324 E54.79482
G1 X71.942 Y108.353 E56.58698
G1 X46.39 Y135.893 E58.42089
G1 X73.381 Y160.936 E60.21827
G1 X73.821 Y161.544 E60.25491
G1 X74.058 Y162.075 E60.28328
G1 X74.196 Y162.636 E60.3115
G1 X74.24 Y163.892 E60.37286
G1 X74.126 Y164.5 E60.40303
G1 X73.911 Y165.058 E60.43221
G1 X73.638 Y165.509 E60.45796
G1 X68.678 Y170.874 E60.81461
G1 X65.598 Y179.073 E61.24219
G1 X65.202 Y179.74 E61.28005
G1 X64.668 Y180.326 E61.31876
G1 X64.035 Y180.784 E61.35691
G1 X51.597 Y186.773 E62.03077
G1 X50.924 Y186.932 E62.06457
G1 X50.416 Y186.941 E62.08934
G1 X49.47 Y186.772 E62.13626
G1 X49.031 Y186.583 E62.15957
G1 X48.75 Y186.413 E62.17565
G1 X47.497 Y185.285 E62.25791
G1 X47.034 Y184.606 E62.29806
G1 X46.949 Y184.395 E62.30916
G1 X46.724 Y183.493 E62.35453
G1 X46.715 Y182.852 E62.38584
G1 X46.769 Y182.507 E62.4029
G1 X53.953 Y163.293 E63.40423
G1 X36.537 Y147.12 E64.56447
G1 X36.206 Y146.888 E64.58423
G1 X29.436 Y154.158 E65.06918
G1 X28.967 Y154.502 E65.09755
G1 X28.409 Y154.769 E65.12774
G1 X27.94 Y154.907 E65.15162
G1 X26.535 Y154.976 E65.22031
G1 X25.917 Y154.861 E65.25099
G1 X25.334 Y154.633 E65.28156
G1 X24.801 Y154.292 E65.31243
G1 X16.7 Y146.736 E65.85319
G1 X16.432 Y146.319 E65.87741
G1 X16.162 Y145.684 E65.91109
G1 X16.048 Y145.125 E65.93895
G1 X16.014 Y144.054 E65.99125
G1 X16.131 Y143.382 E66.02457
G1 X16.329 Y142.859 E66.05186
G1 X16.587 Y142.414 E66.07695
G1 X66.925 Y88.132 E69.6908
G1 X67.131 Y87.976 E69.70341
G1 X67.484 Y88.438 F18000
G1 F2700
G1 X67.867 Y88.145 E69.72696
G1 X68.615 Y87.798 E69.76722
G1 X131.629 Y73.415 E72.9224
G1 X132.514 Y73.409 E72.96562
G1 X133.105 Y73.537 E72.99511
G1 X201.791 Y100.493 E76.59707
G1 X202.283 Y100.811 E76.62567
G1 X202.734 Y101.275 E76.65726
G1 X202.941 Y101.606 E76.67629
G1 X203.376 Y102.655 E76.73174
G1 X203.441 Y103.034 E76.75054
G1 X203.45 Y103.496 E76.7731
G1 X203.348 Y104.063 E76.80118
G1 X199.421 Y114.07 E77.32599
G1 X199.11 Y114.555 E77.35408
G1 X198.79 Y114.887 E77.37663
G1 X198.484 Y115.122 E77.39544
G1 X197.26 Y115.656 E77.46064
G1 X196.88 Y115.721 E77.47944
G1 X196.416 Y115.729 E77.50207
G1 X195.965 Y115.659 E77.52436
G1 X187.017 Y112.16 E77.99336
G1 X186.712 Y112.07 E78.00891
G1 X186.553 Y112.061 E78.01667
G1 X186.356 Y112.094 E78.02644
G1 X186.136 Y112.182 E78.03801
G1 X185.921 Y112.369 E78.05192
G1 X185.739 Y112.69 E78.06991
G1 X177.082 Y134.776 E79.22792
G1 X177.053 Y135.007 E79.23929
G1 X177.08 Y135.22 E79.24975
G1 X177.158 Y135.419 E79.26021
G1 X177.288 Y135.601 E79.27114
G1 X191.945 Y149.628 E80.26148
G1 X192.085 Y149.824 E80.27326
G1 X192.325 Y150.335 E80.30078
G1 X192.473 Y151.022 E80.33511
G1 X192.465 Y151.605 E80.36357
G1 X192.425 Y151.796 E80.37307
G1 X191.852 Y153.261 E80.44987
G1 X191.676 Y153.554 E80.46658
G1 X191.293 Y153.966 E80.49402
G1 X190.71 Y154.36 E80.52836
G1 X190.185 Y154.562 E80.5558
G1 X189.854 Y154.616 E80.5722
G1 X176.132 Y154.616 E81.24207
G1 X175.471 Y154.494 E81.27486
G1 X174.896 Y154.263 E81.30513
G1 X174.338 Y153.897 E81.33767
G1 X167.942 Y147.786 E81.76952
G1 X161.07 Y145.075 E82.13016
G1 X160.732 Y144.848 E82.15004
G1 X160.369 Y144.503 E82.17446
G1 X160.102 Y144.144 E82.1963
G1 X159.641 Y143.106 E82.25177
G1 X159.541 Y142.651 E82.27448
G1 X159.526 Y142.129 E82.29997
G1 X159.628 Y141.565 E82.32798
G1 X173.283 Y106.77 E84.15261
G1 X137.219 Y92.617 E86.04384
G1 X123.603 Y127.311 E87.86326
G1 X123.175 Y127.949 E87.90073
G1 X122.533 Y128.518 E87.94262
G1 X121.826 Y128.882 E87.98144
G1 X101.597 Y133.508 E88.99445
G1 X100.656 Y133.487 E89.04039
G1 X99.89 Y133.261 E89.07938
G1 X99.231 Y132.871 E89.11676
G1 X71.911 Y107.523 E90.93599
G1 X45.56 Y135.924 E92.82722
G1 X72.961 Y161.347 E94.65186
G1 X73.297 Y161.812 E94.67987
G1 X73.51 Y162.288 E94.70535
G1 X73.618 Y162.741 E94.72807
G1 X73.652 Y163.877 E94.78354
G1 X73.568 Y164.316 E94.80537
G1 X73.391 Y164.784 E94.8298
G1 X73.185 Y165.135 E94.84968
G1 X68.169 Y170.559 E95.21032
G1 X65.058 Y178.841 E95.64217
G1 X64.715 Y179.412 E95.6747
G1 X64.297 Y179.87 E95.70498
G1 X63.755 Y180.267 E95.73777
G1 X51.374 Y186.229 E96.40857
G1 X50.826 Y186.353 E96.436
G1 X50.488 Y186.358 E96.45252
G1 X49.669 Y186.218 E96.49306
G1 X49.284 Y186.053 E96.5135
G1 X49.082 Y185.928 E96.52511
G1 X47.918 Y184.874 E96.60176
G1 X47.564 Y184.353 E96.63252
G1 X47.512 Y184.225 E96.63927
G1 X47.31 Y183.449 E96.67842
G1 X47.302 Y182.872 E96.70655
G1 X47.343 Y182.634 E96.71836
G1 X54.462 Y163.637 E97.70868
G1 X54.501 Y163.416 E97.71962
G1 X54.484 Y163.203 E97.73007
G1 X54.416 Y163 E97.74054
G1 X54.289 Y162.804 E97.7519
G1 X36.907 Y146.662 E98.90989
G1 X36.615 Y146.458 E98.92731
G1 X36.327 Y146.381 E98.94185
G1 X36.027 Y146.399 E98.95649
G1 X35.752 Y146.534 E98.97145
G1 X35.525 Y146.74 E98.9864
G1 X29.026 Y153.736 E99.45257
G1 X28.648 Y154.009 E99.47531
G1 X28.183 Y154.227 E99.50038
G1 X27.813 Y154.333 E99.51917
G1 X26.545 Y154.388 E99.58116
G1 X26.101 Y154.304 E99.60318
G1 X25.62 Y154.12 E99.62835
G1 X25.18 Y153.843 E99.65373
G1 X17.171 Y146.384 E100.18797
G1 X16.959 Y146.06 E100.20686
G1 X16.729 Y145.531 E100.23502
G1 X16.634 Y145.079 E100.25757
G1 X16.602 Y144.066 E100.30705
G1 X16.691 Y143.56 E100.33213
G1 X16.85 Y143.131 E100.35449
G1 X17.078 Y142.736 E100.37673
G1 X67.338 Y88.549 E103.98459
G1 X67.412 Y88.493 E103.98912
G1 X67.767 Y88.955 F18000
G1 F2700
G1 X68.148 Y88.662 E104.01258
G1 X68.778 Y88.363 E104.04661
G1 X131.728 Y73.994 E107.1986
G1 X132.425 Y73.99 E107.23263
G1 X132.914 Y74.092 E107.257
G1 X201.55 Y101.029 E110.85631
G1 X201.89 Y101.248 E110.87607
G1 X202.258 Y101.62 E110.90162
G1 X202.411 Y101.859 E110.91545
G1 X202.805 Y102.793 E110.96492
G1 X202.855 Y103.07 E110.97868
G1 X202.862 Y103.479 E110.99863
G1 X202.791 Y103.875 E111.0183
G1 X198.885 Y113.829 E111.54029
G1 X198.667 Y114.168 E111.55995
G1 X198.384 Y114.462 E111.5799
G1 X198.159 Y114.631 E111.59362
G1 X197.121 Y115.084 E111.64893
G1 X196.844 Y115.134 E111.66264
G1 X196.434 Y115.142 E111.68269
G1 X196.093 Y115.086 E111.69956
G1 X187.208 Y111.605 E112.16538
G1 X186.841 Y111.496 E112.18406
G1 X186.495 Y111.476 E112.20097
G1 X186.197 Y111.525 E112.21574
G1 X185.886 Y111.65 E112.23204
G1 X185.718 Y111.757 E112.24181
G1 X185.479 Y111.981 E112.25777
G1 X185.303 Y112.237 E112.27296
G1 X185.195 Y112.469 E112.28543
G1 X176.588 Y134.4 E113.4355
G1 X176.505 Y134.657 E113.44871
M73 P1 R85
G1 X176.461 Y135.007 E113.46589
G1 X176.506 Y135.365 E113.48352
G1 X176.638 Y135.701 E113.50115
G1 X176.843 Y135.988 E113.51834
G1 X191.489 Y149.997 E114.50772
G1 X191.571 Y150.109 E114.51449
G1 X191.759 Y150.495 E114.53547
G1 X191.892 Y151.11 E114.56615
G1 X191.879 Y151.559 E114.58811
G1 X191.314 Y153.025 E114.66481
G1 X191.219 Y153.184 E114.67382
G1 X190.933 Y153.5 E114.69465
G1 X190.412 Y153.852 E114.72534
G1 X190.012 Y154.001 E114.74618
G1 X189.832 Y154.029 E114.75508
G1 X176.161 Y154.029 E115.42244
G1 X175.613 Y153.924 E115.44965
G1 X175.146 Y153.731 E115.47431
G1 X174.725 Y153.454 E115.49893
G1 X168.265 Y147.282 E115.9351
G1 X161.319 Y144.542 E116.29956
G1 X161.089 Y144.382 E116.31329
G1 X160.793 Y144.097 E116.33333
G1 X160.623 Y143.871 E116.34709
G1 X160.208 Y142.949 E116.39647
G1 X160.121 Y142.555 E116.41617
G1 X160.113 Y142.149 E116.43602
G1 X160.185 Y141.752 E116.45568
G1 X174.044 Y106.438 E118.30757
G1 X136.887 Y91.856 E120.25611
G1 X123.067 Y127.068 E122.10268
G1 X122.753 Y127.539 E122.13033
G1 X122.224 Y128.018 E122.16517
G1 X121.656 Y128.318 E122.19654
G1 X101.501 Y132.928 E123.20582
G1 X100.778 Y132.912 E123.2411
G1 X100.15 Y132.734 E123.27299
G1 X99.605 Y132.418 E123.30374
G1 X71.88 Y106.694 E125.14998
G1 X44.731 Y135.955 E127.09852
G1 X72.54 Y161.758 E128.95041
G1 X72.777 Y162.084 E128.97007
G1 X72.946 Y162.453 E128.98992
G1 X73.039 Y162.846 E129.00962
G1 X73.065 Y163.857 E129.059
G1 X73.01 Y164.134 E129.07276
G1 X72.867 Y164.519 E129.0928
G1 X72.729 Y164.763 E129.10653
G1 X67.66 Y170.245 E129.47099
G1 X64.518 Y178.61 E129.90716
G1 X64.258 Y179.042 E129.93178
G1 X63.921 Y179.418 E129.95645
G1 X63.474 Y179.751 E129.98365
G1 X51.153 Y185.684 E130.65121
G1 X50.735 Y185.772 E130.67205
G1 X50.555 Y185.774 E130.68085
G1 X49.866 Y185.664 E130.71491
G1 X49.539 Y185.523 E130.73227
G1 X49.42 Y185.447 E130.7392
G1 X48.34 Y184.465 E130.81045
G1 X48.091 Y184.092 E130.83235
G1 X47.888 Y183.34 E130.87039
G1 X47.889 Y182.905 E130.89162
G1 X47.914 Y182.769 E130.89837
G1 X55.031 Y163.792 E131.88773
G1 X55.092 Y163.445 E131.90493
G1 X55.064 Y163.085 E131.92256
G1 X54.949 Y162.743 E131.94019
G1 X54.758 Y162.447 E131.95738
G1 X54.571 Y162.251 E131.97059
G1 X37.301 Y146.227 E133.12066
G1 X37.103 Y146.065 E133.13313
G1 X36.828 Y145.907 E133.14864
G1 X36.409 Y145.796 E133.16979
G1 X36.067 Y145.798 E133.18646
G1 X35.698 Y145.895 E133.20511
G1 X35.404 Y146.058 E133.22152
G1 X35.113 Y146.321 E133.24068
G1 X28.618 Y153.313 E133.7065
G1 X28.335 Y153.511 E133.72337
G1 X27.962 Y153.683 E133.74342
G1 X27.691 Y153.758 E133.75713
G1 X26.559 Y153.8 E133.81244
G1 X26.283 Y153.745 E133.82616
G1 X25.9 Y153.603 E133.84611
G1 X25.557 Y153.392 E133.86577
G1 X17.639 Y146.028 E134.39361
G1 X17.484 Y145.796 E134.40725
G1 X17.295 Y145.372 E134.4299
G1 X17.219 Y145.032 E134.44693
G1 X17.189 Y144.079 E134.49348
G1 X17.25 Y143.74 E134.51026
G1 X17.391 Y143.361 E134.53002
G1 X17.567 Y143.063 E134.54688
G1 X67.704 Y89.018 E138.14558
G1 X68.134 Y89.418 F18000
M73 P1 R84
G1 F2700
G1 X68.434 Y89.175 E138.16439
G1 X68.943 Y88.928 E138.19201
G1 X131.825 Y74.575 E141.34059
G1 X132.39 Y74.577 E141.36821
G1 X132.721 Y74.647 E141.38472
G1 X201.308 Y101.565 E144.98149
G1 X201.501 Y101.689 E144.99265
G1 X201.787 Y101.972 E145.01231
G1 X201.883 Y102.117 E145.0208
G1 X202.235 Y102.937 E145.06439
G1 X202.268 Y103.108 E145.07287
G1 X202.275 Y103.461 E145.09009
G1 X202.234 Y103.687 E145.10133
G1 X198.349 Y113.588 E145.62051
G1 X198.224 Y113.782 E145.63175
G1 X197.98 Y114.036 E145.64897
G1 X197.84 Y114.138 E145.65741
G1 X196.976 Y114.515 E145.70344
G1 X196.806 Y114.548 E145.71189
G1 X196.453 Y114.554 E145.7291
G1 X196.227 Y114.514 E145.74035
G1 X187.398 Y111.049 E146.20331
G1 X186.961 Y110.92 E146.2256
G1 X186.705 Y110.888 E146.23819
