; generated by PrusaSlicer 2.5.0-alpha3+win64 on 2022-10-09 at 19:16:03 UTC


;
;
; 

; external perimeters extrusion width = 0.68mm
; perimeters extrusion width = 0.68mm
; infill extrusion width = 0.68mm
; solid infill extrusion width = 0.68mm
; top infill extrusion width = 0.60mm
; first layer extrusion width = 0.63mm

M73 P0 R67
M107
M190 S85 ; set bed temperature and wait for it to be reached
G10 S230 P1 ; set temperature
;TYPE:Custom
;Set standby temperatures
G10 R200 P0
G10 R215 P1
G28 ; home all axes
G32 ; run bed.g -- probe bed and enable compensation
;workaround for toolchanger when using only one extruder
T1; select tool
G10 S230 P1 ; set temperature
M116 ; wait for temperature to be reached
G21 ; set units to millimeters
G90 ; use absolute coordinates
M82 ; use absolute distances for extrusion
G92 E0
;tool change macro
T1
G92 E0
; Filament gcode
M107
;LAYER_CHANGE
;Z:0.2
;HEIGHT:0.2
G1 Z.2 F18000
G1 E-.75 F600
G92 E0
G1 X39.695 Y128.231 F18000
G1 E.75 F600
;TYPE:Skirt/Brim
;WIDTH:0.63
G1 F2700
G1 X78.989 Y116.068 E2.75796
G1 X79.855 Y115.948 E2.80062
G1 X140.214 Y115.952 E5.74711
G1 X141.126 Y116.095 E5.79218
G1 X201.517 Y134.797 E8.87834
G1 X201.987 Y135.066 E8.90477
M73 P0 R66
G1 X202.483 Y135.449 E8.9354
G1 X203.335 Y136.501 E9.00149
G1 X203.763 Y137.442 E9.05194
G1 X203.902 Y138.025 E9.08119
G1 X203.932 Y145.117 E9.4274
G1 X203.804 Y145.848 E9.46363
G1 X203.533 Y146.551 E9.50039
G1 X203.003 Y147.34 E9.5468
G1 X201.988 Y148.299 E9.61498
G1 X201.486 Y148.595 E9.64342
G1 X200.964 Y148.811 E9.67098
G1 X200.062 Y148.99 E9.71591
G1 X19.939 Y148.99 E18.50875
G1 X19.21 Y148.863 E18.54487
G1 X18.508 Y148.592 E18.58161
G1 X17.718 Y148.062 E18.62803
G1 X16.758 Y147.043 E18.69639
G1 X16.447 Y146.507 E18.72663
G1 X16.149 Y145.678 E18.76967
G1 X16.068 Y145.103 E18.79801
G1 X16.09 Y138.092 E19.14026
G1 X16.204 Y137.543 E19.16763
G1 X16.466 Y136.855 E19.20353
G1 X17.188 Y135.792 E19.26626
G1 X17.961 Y135.105 E19.31675
G1 X18.477 Y134.8 E19.34603
G1 X39.609 Y128.258 E20.42592
G1 X39.781 Y128.814 F18000
G1 F2700
G1 X79.139 Y116.636 E22.43708
G1 X79.874 Y116.535 E22.4733
G1 X140.191 Y116.539 E25.4177
G1 X140.972 Y116.662 E25.45633
G1 X201.256 Y135.323 E28.53688
G1 X201.645 Y135.544 E28.55873
G1 X202.096 Y135.892 E28.58656
G1 X202.852 Y136.837 E28.64561
G1 X203.214 Y137.652 E28.68917
G1 X203.323 Y138.124 E28.71277
G1 X203.345 Y145.091 E29.05291
G1 X203.232 Y145.714 E29.0838
G1 X202.999 Y146.306 E29.11484
G1 X202.575 Y146.938 E29.15203
G1 X201.658 Y147.812 E29.21387
G1 X201.241 Y148.061 E29.23756
G1 X200.766 Y148.257 E29.26265
G1 X200.033 Y148.403 E29.29915
G1 X19.966 Y148.403 E38.08926
G1 X19.345 Y148.291 E38.12008
G1 X18.753 Y148.058 E38.15112
G1 X18.121 Y147.633 E38.18831
G1 X17.246 Y146.715 E38.25022
G1 X16.988 Y146.278 E38.27499
G1 X16.725 Y145.561 E38.31226
G1 X16.655 Y145.082 E38.3359
G1 X16.677 Y138.126 E38.67545
G1 X16.773 Y137.689 E38.69729
G1 X16.972 Y137.155 E38.72513
G1 X17.651 Y136.154 E38.78418
G1 X18.324 Y135.567 E38.82774
G1 X18.742 Y135.324 E38.85135
G1 X39.695 Y128.841 E39.92206
G1 X39.868 Y129.397 F18000
G1 F2700
G1 X79.289 Y117.204 E41.93641
G1 X79.894 Y117.122 E41.96619
G1 X140.167 Y117.126 E44.90851
G1 X140.819 Y117.229 E44.9407
G1 X200.997 Y135.851 E48.01579
G1 X201.304 Y136.023 E48.03297
G1 X201.708 Y136.334 E48.05789
G1 X202.366 Y137.168 E48.10973
G1 X202.663 Y137.856 E48.14633
G1 X202.742 Y138.217 E48.16437
G1 X202.757 Y145.064 E48.49857
G1 X202.661 Y145.575 E48.52395
G1 X202.467 Y146.057 E48.54935
G1 X202.144 Y146.538 E48.57762
G1 X201.325 Y147.328 E48.63317
G1 X200.995 Y147.527 E48.65198
G1 X200.568 Y147.704 E48.67454
G1 X200.004 Y147.816 E48.70262
G1 X19.995 Y147.816 E57.48993
G1 X19.484 Y147.72 E57.51528
G1 X19.002 Y147.526 E57.54068
G1 X18.521 Y147.203 E57.56895
G1 X17.731 Y146.383 E57.62452
G1 X17.528 Y146.044 E57.64382
G1 X17.3 Y145.441 E57.67529
G1 X17.243 Y145.06 E57.6941
G1 X17.257 Y138.218 E58.02811
G1 X17.331 Y137.874 E58.04529
G1 X17.509 Y137.395 E58.07021
G1 X18.112 Y136.521 E58.12205
G1 X18.681 Y136.034 E58.15865
G1 X19.003 Y135.851 E58.17669
G1 X39.782 Y129.424 E59.23843
G1 X39.954 Y129.981 F18000
G1 F2700
G1 X79.438 Y117.772 E61.25595
G1 X79.913 Y117.709 E61.2793
G1 X140.144 Y117.713 E64.21954
G1 X140.665 Y117.796 E64.2453
G1 X200.742 Y136.38 E67.31514
G1 X200.965 Y136.502 E67.32752
G1 X201.319 Y136.776 E67.34937
G1 X201.877 Y137.495 E67.39378
G1 X202.109 Y138.053 E67.42331
G1 X202.162 Y138.305 E67.43589
G1 X202.17 Y145.034 E67.76435
G1 X202.092 Y145.429 E67.78402
G1 X201.936 Y145.805 E67.80387
G1 X201.712 Y146.14 E67.82357
G1 X200.988 Y146.846 E67.87295
G1 X200.748 Y146.994 E67.88671
G1 X200.37 Y147.151 E67.90666
G1 X199.975 Y147.229 E67.92632
G1 X20.025 Y147.229 E76.71074
G1 X19.63 Y147.151 E76.7304
G1 X19.254 Y146.995 E76.75025
G1 X18.919 Y146.77 E76.76996
G1 X18.213 Y146.047 E76.81932
G1 X18.064 Y145.805 E76.83318
G1 X17.874 Y145.315 E76.85882
G1 X17.83 Y145.036 E76.87262
G1 X17.838 Y138.305 E77.2012
G1 X17.889 Y138.056 E77.21359
G1 X18.046 Y137.637 E77.23544
G1 X18.568 Y136.892 E77.27985
G1 X19.033 Y136.505 E77.30938
G1 X19.258 Y136.38 E77.32196
G1 X39.868 Y130.008 E78.37503
G1 X40.04 Y130.565 F18000
G1 F2700
G1 X79.587 Y118.341 E80.39568
G1 X79.931 Y118.297 E80.41259
G1 X140.12 Y118.3 E83.35078
G1 X140.511 Y118.363 E83.3701
G1 X200.494 Y136.913 E86.43504
G1 X200.628 Y136.983 E86.44243
G1 X200.929 Y137.216 E86.46099
G1 X201.383 Y137.814 E86.49768
G1 X201.552 Y138.239 E86.52
G1 X201.58 Y138.385 E86.52724
G1 X201.583 Y145.005 E86.8504
G1 X201.538 Y145.231 E86.86164
G1 X201.405 Y145.553 E86.87868
G1 X201.277 Y145.744 E86.88988
G1 X200.645 Y146.369 E86.93329
G1 X200.498 Y146.462 E86.94178
G1 X200.172 Y146.597 E86.95899
G1 X199.946 Y146.642 E86.97024
G1 X20.054 Y146.642 E95.75184
G1 X19.828 Y146.597 E95.76308
M73 P1 R66
G1 X19.505 Y146.464 E95.78012
G1 X19.315 Y146.336 E95.79132
G1 X18.69 Y145.704 E95.83473
G1 X18.598 Y145.558 E95.84313
G1 X18.447 Y145.181 E95.86297
G1 X18.417 Y145.009 E95.8715
G1 X18.42 Y138.385 E96.19485
G1 X18.449 Y138.236 E96.20224
G1 X18.582 Y137.88 E96.2208
G1 X19.019 Y137.269 E96.25749
G1 X19.375 Y136.982 E96.27981
G1 X19.506 Y136.913 E96.28705
G1 X39.954 Y130.592 E97.33183
G1 X40.127 Y131.15 F18000
G1 F2700
G1 X79.735 Y118.91 E99.35555
G1 X79.948 Y118.884 E99.36602
G1 X140.096 Y118.887 E102.3022
G1 X140.356 Y118.93 E102.31509
G1 X200.259 Y137.451 E105.37586
G1 X200.536 Y137.654 E105.39266
G1 X200.883 Y138.126 E105.42124
G1 X200.996 Y138.451 E105.43804
G1 X200.996 Y144.976 E105.75659
G1 X200.841 Y145.35 E105.77635
G1 X200.291 Y145.9 E105.81432
G1 X199.917 Y146.055 E105.83408
G1 X20.083 Y146.055 E114.61286
G1 X19.709 Y145.9 E114.63263
G1 X19.159 Y145.35 E114.67059
G1 X19.004 Y144.976 E114.69035
G1 X19.004 Y138.451 E115.00891
G1 X19.117 Y138.126 E115.0257
G1 X19.464 Y137.654 E115.05428
G1 X19.705 Y137.469 E115.06912
G1 X40.041 Y131.177 E116.10827
G1 X40.214 Y131.737 F18000
G1 F2700
G1 X79.837 Y119.488 E118.13284
G1 X79.968 Y119.471 E118.13928
G1 X140.07 Y119.474 E121.0732
G1 X140.2 Y119.496 E121.07965
G1 X200.018 Y137.991 E124.13609
G1 X200.095 Y138.045 E124.14068
G1 X200.38 Y138.432 E124.16412
G1 X200.409 Y138.521 E124.16872
G1 X200.409 Y144.889 E124.47957
G1 X200.364 Y144.997 E124.48527
G1 X199.938 Y145.423 E124.51471
G1 X199.83 Y145.468 E124.52041
G1 X20.17 Y145.468 E133.29068
G1 X20.062 Y145.423 E133.29638
G1 X19.636 Y144.997 E133.32582
G1 X19.591 Y144.889 E133.33152
G1 X19.591 Y138.521 E133.64238
G1 X19.62 Y138.432 E133.64697
G1 X19.905 Y138.045 E133.67041
G1 X19.982 Y137.991 E133.675
G1 X40.128 Y131.763 E134.70436
G1 X40.301 Y132.323 F18000
G1 F2700
G1 X79.993 Y120.058 E136.73236
G1 X140.007 Y120.058 E139.66199
G1 X199.707 Y138.509 E142.71234
M73 P1 R65
G1 X199.822 Y138.665 E142.72176
G1 X199.822 Y144.709 E143.01683
G1 X199.65 Y144.881 E143.0287
G1 X20.35 Y144.881 E151.78139
G1 X20.178 Y144.709 E151.79326
G1 X20.178 Y138.665 E152.08832
G1 X20.293 Y138.509 E152.09775
G1 X40.215 Y132.35 E153.1157
G1 E152.3657 F600
G92 E0
G1 X198.626 Y143.685 F18000
G1 E.75 F600
;TYPE:Perimeter
;WIDTH:0.629999
G1 F3000
G1 X21.374 Y143.685 E9.40274
G1 X21.374 Y139.426 E9.61064
G1 X80.151 Y121.253 E12.61394
G1 X139.849 Y121.253 E15.52811
G1 X198.626 Y139.426 E18.53141
G1 X198.626 Y143.595 E18.73492
G1 X199.214 Y144.269 F18000
;TYPE:External perimeter
G1 F2700
G1 X20.786 Y144.272 E27.44498
G1 X20.786 Y138.993 E27.70267
M73 P2 R65
G1 X80.063 Y120.666 E30.73143
G1 X139.937 Y120.666 E33.65426
G1 X199.214 Y138.993 E36.68303
G1 X199.214 Y144.179 E36.93617
G1 X198.618 Y144.193 F18000
G1 E36.18617 F600
G92 E0
G1 X141.922 Y135.934 F18000
G1 E.75 F600
;TYPE:Perimeter
G1 F3000
G1 X141.342 Y136.287 E.78311
G1 X140.808 Y136.5 E.81119
G1 X139.984 Y136.667 E.85222
G1 X139.825 Y136.681 E.86002
G1 X117.497 Y136.689 E1.94997
G1 X116.993 Y136.656 E1.97464
G1 X116.191 Y136.465 E2.01486
G1 X115.638 Y136.228 E2.04425
G1 X114.954 Y135.77 E2.08447
G1 X114.357 Y135.158 E2.12617
G1 X113.903 Y134.434 E2.16791
G1 X113.683 Y133.882 E2.1969
G1 X113.521 Y133.071 E2.2373
G1 X113.506 Y132.301 E2.27488
G1 X113.556 Y131.619 E2.30825
G1 X113.615 Y131.309 E2.32369
G1 X113.825 Y130.676 E2.35621
G1 X114.101 Y130.142 E2.38555
G1 X114.607 Y129.492 E2.42578
G1 X115.26 Y128.94 E2.46752
G1 X115.781 Y128.639 E2.49689
G1 X116.557 Y128.366 E2.53708
G1 X117.403 Y128.254 E2.57871
G1 X138.19 Y128.249 E3.59343
G1 X138.825 Y128.303 E3.62455
G1 X139.367 Y128.427 E3.65172
G1 X140.782 Y128.865 E3.724
G1 X141.264 Y129.05 E3.7492
G1 X141.774 Y129.331 E3.77763
G1 X142.238 Y129.682 E3.80604
G1 X142.806 Y130.302 E3.84707
G1 X143.247 Y131.054 E3.88965
G1 X143.514 Y131.885 E3.93225
G1 X143.598 Y132.577 E3.96625
G1 X143.543 Y133.333 E4.00329
G1 X143.4 Y133.931 E4.03328
G1 X143.179 Y134.47 E4.06171
G1 X142.882 Y134.971 E4.09015
G1 X142.516 Y135.423 E4.11856
G1 X141.99 Y135.875 E4.15241
G1 X141.509 Y135.515 F18000
;TYPE:External perimeter
G1 F2700
G1 X141.056 Y135.774 E4.17787
G1 X140.548 Y135.966 E4.20439
G1 X139.825 Y136.094 E4.24024
G1 X117.497 Y136.102 E5.33017
G1 X116.984 Y136.062 E5.35534
G1 X116.337 Y135.896 E5.38794
G1 X115.836 Y135.668 E5.41477
G1 X115.288 Y135.287 E5.44735
G1 X114.786 Y134.758 E5.48295
G1 X114.408 Y134.134 E5.51859
G1 X114.222 Y133.646 E5.54409
G1 X114.098 Y132.966 E5.5778
G1 X114.093 Y132.301 E5.61029
G1 X114.137 Y131.703 E5.63957
G1 X114.172 Y131.494 E5.64991
G1 X114.382 Y130.862 E5.68243
G1 X114.627 Y130.405 E5.70772
G1 X115.064 Y129.86 E5.74182
G1 X115.628 Y129.397 E5.77746
G1 X116.11 Y129.133 E5.80427
G1 X116.743 Y128.923 E5.83683
G1 X117.466 Y128.838 E5.87237
G1 X138.19 Y128.836 E6.88401
G1 X138.772 Y128.888 E6.91255
G1 X139.194 Y128.988 E6.93372
G1 X140.609 Y129.425 E7.006
G1 X141.088 Y129.616 E7.03119
G1 X141.519 Y129.865 E7.05546
G1 X141.915 Y130.181 E7.08022
G1 X142.366 Y130.691 E7.11347
G1 X142.733 Y131.339 E7.14982
G1 X142.951 Y132.051 E7.18619
G1 X143.011 Y132.583 E7.2123
G1 X142.958 Y133.288 E7.24683
G1 X142.832 Y133.78 E7.27161
G1 X142.62 Y134.276 E7.29796
G1 X142.357 Y134.698 E7.32223
G1 X142.028 Y135.084 E7.34699
G1 X141.578 Y135.457 E7.3755
G1 X141.55 Y136.034 F18000
G1 E6.6255 F600
G92 E0
G1 X105.004 Y135.801 F18000
G1 E.75 F600
;TYPE:Perimeter
G1 F3000
G1 X104.246 Y136.284 E.79386
G1 X103.687 Y136.508 E.82325
G1 X102.879 Y136.668 E.86349
G1 X102.723 Y136.682 E.87113
G1 X80.4 Y136.689 E1.96083
G1 X79.885 Y136.654 E1.986
G1 X79.068 Y136.456 E2.02705
G1 X78.283 Y136.077 E2.06964
G1 X77.598 Y135.537 E2.11219
G1 X77.047 Y134.861 E2.15478
G1 X76.752 Y134.322 E2.18475
G1 X76.493 Y133.522 E2.22581
G1 X76.409 Y132.914 E2.25577
G1 X76.452 Y132.074 E2.29683
G1 X76.59 Y131.476 E2.32679
G1 X76.929 Y130.707 E2.36783
G1 X77.442 Y130.001 E2.41043
G1 X77.887 Y129.577 E2.44041
G1 X78.364 Y129.245 E2.46882
G1 X79.127 Y128.898 E2.50974
G1 X80.633 Y128.427 E2.58673
G1 X81.141 Y128.307 E2.61225
G1 X81.81 Y128.249 E2.64502
G1 X102.503 Y128.249 E3.65514
G1 X103.006 Y128.283 E3.67978
G1 X103.809 Y128.473 E3.72003
G1 X104.361 Y128.71 E3.7494
G1 X105.046 Y129.169 E3.78961
G1 X105.643 Y129.78 E3.83132
G1 X105.968 Y130.288 E3.86078
G1 X106.175 Y130.677 E3.8823
G1 X106.386 Y131.31 E3.91483
G1 X106.497 Y132.154 E3.95642
G1 X106.495 Y132.868 E3.99127
G1 X106.362 Y133.72 E4.03334
G1 X106.165 Y134.29 E4.06278
G1 X105.756 Y135.007 E4.10308
G1 X105.368 Y135.476 E4.13282
G1 X105.071 Y135.741 E4.15224
G1 X104.574 Y135.393 F18000
;TYPE:External perimeter
G1 F2700
G1 X103.947 Y135.779 E4.18821
G1 X103.432 Y135.971 E4.21504
G1 X102.722 Y136.094 E4.25018
G1 X80.4 Y136.102 E5.33987
G1 X79.876 Y136.06 E5.36554
G1 X79.216 Y135.888 E5.39881
G1 X78.55 Y135.555 E5.43517
G1 X77.973 Y135.085 E5.47149
G1 X77.511 Y134.501 E5.50787
G1 X77.273 Y134.052 E5.53263
G1 X77.054 Y133.351 E5.56849
G1 X76.992 Y132.848 E5.59325
G1 X77.037 Y132.115 E5.62912
G1 X77.159 Y131.622 E5.65388
G1 X77.462 Y130.953 E5.68972
G1 X77.908 Y130.357 E5.72609
G1 X78.281 Y130.012 E5.75088
G1 X78.722 Y129.715 E5.77681
G1 X79.361 Y129.437 E5.81086
G1 X80.806 Y128.988 E5.88472
G1 X81.228 Y128.888 E5.90589
G1 X81.81 Y128.836 E5.93442
G1 X102.503 Y128.836 E6.94454
G1 X103.016 Y128.877 E6.96967
G1 X103.663 Y129.042 E7.00229
G1 X104.163 Y129.27 E7.0291
G1 X104.711 Y129.651 E7.06168
G1 X105.213 Y130.18 E7.09729
G1 X105.592 Y130.804 E7.13292
G1 X105.829 Y131.495 E7.16856
G1 X105.913 Y132.217 E7.20408
G1 X105.908 Y132.861 E7.23552
G1 X105.784 Y133.615 E7.27279
G1 X105.615 Y134.086 E7.29724
G1 X105.251 Y134.708 E7.33238
G1 X104.925 Y135.091 E7.35698
G1 X104.642 Y135.334 E7.37516
G1 X104.639 Y135.989 F18000
G1 E6.62516 F600
G92 E0
G1 X198.45 Y140.756 F18000
G1 E.75 F600
;TYPE:Solid infill
;WIDTH:0.632598
G1 F2700
G1 X197.114 Y139.419 E.84269
G1 X195.906 Y139.046 E.90465
G1 X198.186 Y141.326 E1.06272
G1 X198.186 Y142.16 E1.10361
G1 X194.699 Y138.673 E1.3454
G1 X193.492 Y138.3 E1.40735
G1 X198.186 Y142.994 E1.73284
G1 X198.186 Y143.245 E1.74516
G1 X197.603 Y143.245 E1.77373
G1 X192.285 Y137.927 E2.14252
G1 X191.078 Y137.553 E2.20447
G1 X196.769 Y143.245 E2.59914
G1 X195.935 Y143.245 E2.64003
G1 X189.871 Y137.18 E3.06057
G1 X188.663 Y136.807 E3.12252
G1 X195.102 Y143.245 E3.56895
G1 X194.268 Y143.245 E3.60984
G1 X187.456 Y136.434 E4.08215
G1 X186.249 Y136.06 E4.1441
G1 X193.434 Y143.245 E4.64229
G1 X192.6 Y143.245 E4.68318
G1 X185.042 Y135.687 E5.20724
G1 X183.835 Y135.314 E5.2692
G1 X191.766 Y143.245 E5.81915
G1 X190.932 Y143.245 E5.86003
G1 X182.628 Y134.941 E6.43586
G1 X181.42 Y134.567 E6.49782
G1 X190.098 Y143.245 E7.09953
G1 X189.264 Y143.245 E7.14041
G1 X180.213 Y134.194 E7.768
G1 X179.006 Y133.821 E7.82996
G1 X188.43 Y143.245 E8.48343
G1 X187.596 Y143.245 E8.52432
G1 X177.799 Y133.448 E9.20367
G1 X176.592 Y133.075 E9.26562
G1 X186.762 Y143.245 E9.97085
G1 X185.928 Y143.245 E10.01174
G1 X175.385 Y132.701 E10.74285
G1 X174.177 Y132.328 E10.80481
G1 X185.094 Y143.245 E11.5618
G1 X184.26 Y143.245 E11.60269
G1 X172.97 Y131.955 E12.38556
G1 X171.763 Y131.582 E12.44751
G1 X183.426 Y143.245 E13.25627
G1 X182.593 Y143.245 E13.29715
G1 X170.556 Y131.208 E14.13179
G1 X169.349 Y130.835 E14.19374
G1 X181.759 Y143.245 E15.05426
G1 X180.925 Y143.245 E15.09514
G1 X168.142 Y130.462 E15.98154
G1 X166.935 Y130.089 E16.04349
G1 X180.091 Y143.245 E16.95577
G1 X179.257 Y143.245 E16.99666
G1 X165.727 Y129.715 E17.93481
G1 X164.52 Y129.342 E17.99677
G1 X178.423 Y143.245 E18.9608
G1 X177.589 Y143.245 E19.00169
G1 X163.313 Y128.969 E19.99161
G1 X162.106 Y128.596 E20.05356
G1 X176.755 Y143.245 E21.06936
G1 X175.921 Y143.245 E21.11025
G1 X160.899 Y128.223 E22.15192
G1 X159.692 Y127.849 E22.21388
G1 X175.087 Y143.245 E23.28143
G1 X174.253 Y143.245 E23.32232
G1 X158.484 Y127.476 E24.41576
G1 X157.277 Y127.103 E24.47772
G1 X173.419 Y143.245 E25.59703
G1 X172.585 Y143.245 E25.63792
G1 X156.07 Y126.73 E26.78312
G1 X154.863 Y126.356 E26.84508
G1 X171.751 Y143.245 E28.01616
G1 X170.918 Y143.245 E28.05705
G1 X153.656 Y125.983 E29.254
G1 X152.449 Y125.61 E29.31596
G1 X170.084 Y143.245 E30.5388
G1 X169.25 Y143.245 E30.57969
G1 X151.241 Y125.237 E31.82841
G1 X150.034 Y124.863 E31.89036
G1 X168.416 Y143.245 E33.16496
G1 X167.582 Y143.245 E33.20585
G1 X148.827 Y124.49 E34.50634
