; generated by PrusaSlicer 2.5.0-alpha3+win64 on 2022-10-09 at 18:59:52 UTC


;
;
; 

; external perimeters extrusion width = 0.68mm
; perimeters extrusion width = 0.68mm
; infill extrusion width = 0.68mm
; solid infill extrusion width = 0.68mm
; top infill extrusion width = 0.60mm
; first layer extrusion width = 0.63mm

M73 P0 R64
M107
M190 S85 ; set bed temperature and wait for it to be reached
G10 S230 P1 ; set temperature
;TYPE:Custom
;Set standby temperatures
G10 R200 P0
G10 R215 P1
G28 ; home all axes
G32 ; run bed.g -- probe bed and enable compensation
;workaround for toolchanger when using only one extruder
T1; select tool
G10 S230 P1 ; set temperature
M116 ; wait for temperature to be reached
G21 ; set units to millimeters
G90 ; use absolute coordinates
M82 ; use absolute distances for extrusion
G92 E0
;tool change macro
T1
G92 E0
; Filament gcode
M107
;LAYER_CHANGE
;Z:0.2
;HEIGHT:0.2
G1 Z.2 F18000
G1 E-.75 F600
G92 E0
G1 X56.731 Y147.944 F18000
G1 E.75 F600
;TYPE:Skirt/Brim
;WIDTH:0.63
G1 F2700
G1 X78.906 Y139.441 E1.90938
G1 X79.832 Y139.299 E1.95509
G1 X140.261 Y139.304 E4.90501
G1 X141.367 Y139.518 E4.96001
G1 X190.189 Y158.267 E7.51296
G1 X190.619 Y158.546 E7.53801
G1 X191.072 Y158.931 E7.56703
G1 X191.816 Y159.917 E7.62729
G1 X192.164 Y160.65 E7.66694
G1 X192.357 Y161.45 E7.70708
G1 X192.38 Y168.471 E8.04983
G1 X192.186 Y169.413 E8.09676
G1 X191.804 Y170.226 E8.14062
G1 X191.441 Y170.702 E8.16984
G1 X190.436 Y171.65 E8.23729
G1 X189.934 Y171.946 E8.26572
G1 X189.413 Y172.162 E8.29329
G1 X188.51 Y172.342 E8.33822
G1 X31.49 Y172.342 E16.00326
G1 X30.762 Y172.214 E16.03938
G1 X30.059 Y171.943 E16.07613
G1 X29.27 Y171.413 E16.12254
G1 X28.309 Y170.395 E16.19091
G1 X27.999 Y169.86 E16.22109
G1 X27.731 Y169.148 E16.25821
G1 X27.62 Y168.453 E16.29258
G1 X27.655 Y161.36 E16.6388
G1 X27.86 Y160.582 E16.67811
G1 X28.185 Y159.917 E16.71423
G1 X28.928 Y158.931 E16.77448
G1 X29.381 Y158.546 E16.8035
G1 X29.811 Y158.267 E16.82857
G1 X56.647 Y147.976 E18.23155
G1 X56.856 Y148.522 F18000
G1 F2700
G1 X79.086 Y140.001 E19.39373
G1 X79.853 Y139.887 E19.4316
G1 X140.233 Y139.891 E22.3791
G1 X141.181 Y140.076 E22.42624
G1 X189.897 Y158.777 E24.97359
G1 X190.254 Y159.007 E24.9943
G1 X190.666 Y159.357 E25.02067
G1 X191.326 Y160.242 E25.07459
G1 X191.619 Y160.869 E25.10837
G1 X191.778 Y161.55 E25.14248
G1 X191.793 Y168.443 E25.47897
G1 X191.639 Y169.198 E25.51663
G1 X191.315 Y169.9 E25.55433
G1 X191.017 Y170.295 E25.57848
G1 X190.106 Y171.164 E25.63993
G1 X189.689 Y171.412 E25.66362
G1 X189.215 Y171.609 E25.68871
G1 X188.481 Y171.755 E25.72521
G1 X31.518 Y171.755 E33.38752
G1 X30.896 Y171.642 E33.41834
G1 X30.305 Y171.409 E33.44939
G1 X29.672 Y170.985 E33.48658
G1 X28.797 Y170.067 E33.54849
G1 X28.539 Y169.628 E33.57331
G1 X28.291 Y168.97 E33.60767
G1 X28.207 Y168.432 E33.63424
G1 X28.233 Y161.47 E33.9741
G1 X28.403 Y160.808 E34.00747
G1 X28.673 Y160.243 E34.03803
G1 X29.334 Y159.357 E34.09201
G1 X29.746 Y159.007 E34.11838
G1 X30.103 Y158.777 E34.13911
G1 X56.772 Y148.554 E35.53334
G1 X56.981 Y149.1 F18000
G1 F2700
G1 X79.264 Y140.561 E36.69826
G1 X79.873 Y140.474 E36.72828
G1 X140.204 Y140.479 E39.67341
G1 X140.994 Y140.633 E39.7127
G1 X189.609 Y159.289 E42.25459
G1 X189.89 Y159.468 E42.27088
G1 X190.259 Y159.781 E42.29449
G1 X190.836 Y160.566 E42.34203
G1 X191.054 Y161.033 E42.36719
G1 X191.198 Y161.65 E42.39816
G1 X191.206 Y168.414 E42.72832
G1 X191.09 Y168.988 E42.75692
G1 X190.823 Y169.577 E42.78851
G1 X190.591 Y169.891 E42.80754
G1 X189.773 Y170.679 E42.86299
G1 X189.444 Y170.878 E42.88179
G1 X189.017 Y171.055 E42.90435
G1 X188.452 Y171.167 E42.93243
G1 X31.546 Y171.167 E50.59195
G1 X31.036 Y171.071 E50.6173
G1 X30.553 Y170.877 E50.6427
G1 X30.072 Y170.554 E50.67097
G1 X29.282 Y169.735 E50.72653
G1 X29.079 Y169.395 E50.74584
G1 X28.852 Y168.792 E50.77731
G1 X28.794 Y168.411 E50.79611
G1 X28.811 Y161.576 E51.12981
G1 X28.947 Y161.029 E51.1573
G1 X29.164 Y160.566 E51.18227
G1 X29.741 Y159.781 E51.22982
G1 X30.11 Y159.468 E51.25344
G1 X30.392 Y159.289 E51.26973
G1 X56.897 Y149.132 E52.65534
G1 X57.106 Y149.678 F18000
G1 F2700
G1 X79.442 Y141.122 E53.82295
G1 X79.892 Y141.061 E53.84512
G1 X140.176 Y141.066 E56.78794
G1 X140.807 Y141.19 E56.81937
G1 X189.323 Y159.803 E59.35602
G1 X189.527 Y159.93 E59.36776
G1 X189.851 Y160.205 E59.38846
G1 X190.343 Y160.887 E59.42954
G1 X190.489 Y161.197 E59.44627
G1 X190.619 Y161.751 E59.47406
G1 X190.619 Y168.385 E59.7979
G1 X190.539 Y168.782 E59.81765
G1 X190.328 Y169.26 E59.8432
G1 X190.162 Y169.49 E59.85704
G1 X189.436 Y170.198 E59.90651
G1 X189.196 Y170.345 E59.92027
G1 X188.819 Y170.502 E59.94022
G1 X188.424 Y170.58 E59.95988
G1 X31.576 Y170.58 E67.61651
G1 X31.181 Y170.502 E67.63617
M73 P0 R63
G1 X30.806 Y170.346 E67.65602
G1 X30.47 Y170.122 E67.67573
G1 X29.764 Y169.398 E67.72509
G1 X29.616 Y169.156 E67.73895
G1 X29.426 Y168.666 E67.76459
G1 X29.381 Y168.387 E67.77838
G1 X29.39 Y161.682 E68.10569
G1 X29.51 Y161.198 E68.13002
G1 X29.657 Y160.887 E68.14685
G1 X30.149 Y160.205 E68.18793
G1 X30.473 Y159.93 E68.20864
G1 X30.677 Y159.803 E68.22038
G1 X57.022 Y149.71 E69.59757
G1 X57.23 Y150.253 F18000
G1 F2700
G1 X79.557 Y141.698 E70.76478
G1 X79.913 Y141.648 E70.78232
G1 X140.147 Y141.653 E73.72266
G1 X140.62 Y141.747 E73.74624
G1 X189.044 Y160.319 E76.27798
G1 X189.167 Y160.393 E76.28498
G1 X189.441 Y160.627 E76.30257
G1 X189.849 Y161.204 E76.33708
G1 X189.928 Y161.369 E76.346
G1 X190.032 Y161.789 E76.3671
G1 X190.032 Y168.356 E76.6877
G1 X189.987 Y168.58 E76.69886
G1 X189.829 Y168.951 E76.71853
G1 X189.728 Y169.093 E76.72701
G1 X189.093 Y169.72 E76.7706
G1 X188.946 Y169.813 E76.77909
G1 X188.621 Y169.948 E76.7963
G1 X188.395 Y169.993 E76.80755
G1 X31.605 Y169.993 E84.46136
G1 X31.379 Y169.948 E84.4726
M73 P1 R63
G1 X31.057 Y169.815 E84.48964
G1 X30.866 Y169.687 E84.50084
G1 X30.241 Y169.055 E84.54425
G1 X30.149 Y168.909 E84.55265
G1 X29.998 Y168.532 E84.57249
G1 X29.968 Y168.36 E84.58102
G1 X29.968 Y161.789 E84.9018
G1 X30.072 Y161.369 E84.92291
G1 X30.151 Y161.204 E84.93182
G1 X30.559 Y160.627 E84.96633
G1 X30.833 Y160.393 E84.98392
G1 X30.956 Y160.319 E84.99093
G1 X57.146 Y150.285 E86.36001
G1 X57.354 Y150.828 F18000
G1 F2700
G1 X79.677 Y142.274 E87.52701
G1 X79.936 Y142.235 E87.5398
G1 X140.117 Y142.24 E90.47757
G1 X140.432 Y142.304 E90.4933
G1 X188.777 Y160.842 E93.02082
G1 X189.03 Y161.048 E93.03674
G1 X189.353 Y161.518 E93.06458
G1 X189.445 Y161.831 E93.0805
G1 X189.445 Y168.327 E93.39765
G1 X189.29 Y168.701 E93.41741
G1 X188.74 Y169.251 E93.45538
G1 X188.366 Y169.406 E93.47514
G1 X31.634 Y169.406 E101.12613
G1 X31.26 Y169.251 E101.14589
G1 X30.71 Y168.701 E101.18386
G1 X30.555 Y168.327 E101.20362
G1 X30.555 Y161.831 E101.52077
G1 X30.647 Y161.518 E101.53669
G1 X30.97 Y161.048 E101.56453
G1 X31.19 Y160.861 E101.57858
G1 X57.27 Y150.86 E102.9421
G1 X57.479 Y151.406 F18000
G1 F2700
G1 X79.802 Y142.848 E104.10916
G1 X79.961 Y142.822 E104.11704
G1 X140.085 Y142.827 E107.05205
G1 X140.243 Y142.86 E107.05993
G1 X188.504 Y161.366 E109.58309
G1 X188.574 Y161.421 E109.58744
G1 X188.831 Y161.795 E109.60959
G1 X188.858 Y161.88 E109.61394
G1 X188.858 Y168.24 E109.9244
G1 X188.813 Y168.348 E109.9301
G1 X188.386 Y168.774 E109.95954
G1 X188.279 Y168.819 E109.96524
G1 X31.721 Y168.819 E117.60771
G1 X31.614 Y168.774 E117.61341
G1 X31.187 Y168.348 E117.64285
G1 X31.142 Y168.24 E117.64855
G1 X31.142 Y161.88 E117.95901
G1 X31.169 Y161.795 E117.96336
G1 X31.426 Y161.421 E117.98551
G1 X31.496 Y161.366 E117.98986
G1 X57.395 Y151.438 E119.34385
G1 X57.604 Y151.983 F18000
G1 F2700
G1 X79.992 Y143.409 E120.51413
G1 X140.008 Y143.409 E123.44391
G1 X188.167 Y161.866 E125.96156
G1 X188.271 Y162.016 E125.97046
G1 X188.271 Y168.06 E126.26551
G1 X188.099 Y168.232 E126.27738
G1 X31.901 Y168.232 E133.90228
G1 X31.729 Y168.06 E133.91415
G1 X31.729 Y162.016 E134.20919
G1 X31.833 Y161.866 E134.21809
G1 X57.52 Y152.016 E135.56107
G1 E134.81107 F600
G92 E0
G1 X187.075 Y167.036 F18000
G1 E.75 F600
;TYPE:Perimeter
;WIDTH:0.629999
G1 F3000
G1 X32.925 Y167.036 E8.27495
G1 X32.925 Y162.727 E8.4853
G1 X80.186 Y144.605 E10.95616
G1 X139.814 Y144.605 E13.867
G1 X187.075 Y162.727 E16.33786
G1 X187.075 Y166.946 E16.54381
G1 X187.662 Y167.62 F18000
;TYPE:External perimeter
G1 F2700
G1 X32.338 Y167.624 E24.12608
G1 X32.338 Y162.324 E24.38479
G1 X80.077 Y144.018 E26.88067
G1 X139.923 Y144.018 E29.80211
G1 X187.662 Y162.324 E32.29799
G1 X187.662 Y167.53 E32.55214
G1 X187.069 Y167.529 F18000
G1 E31.80214 F600
G92 E0
G1 X114.694 Y158.855 F18000
G1 E.75 F600
;TYPE:Perimeter
G1 F3000
G1 X114.357 Y158.51 E.77357
G1 X113.903 Y157.785 E.81532
G1 X113.683 Y157.233 E.84431
G1 X113.521 Y156.422 E.8847
G1 X113.506 Y155.652 E.92228
G1 X113.556 Y154.97 E.95566
G1 X113.615 Y154.66 E.97109
G1 X113.825 Y154.027 E1.00362
G1 X114.101 Y153.493 E1.03296
G1 X114.607 Y152.843 E1.07319
G1 X115.26 Y152.291 E1.11493
G1 X115.781 Y151.99 E1.1443
M73 P2 R63
G1 X116.557 Y151.717 E1.18448
G1 X117.403 Y151.606 E1.22612
G1 X137.781 Y151.6 E2.22087
G1 X138.427 Y151.656 E2.25254
G1 X139.213 Y151.867 E2.29227
G1 X140.557 Y152.39 E2.36266
G1 X141.262 Y152.802 E2.40252
G1 X141.721 Y153.187 E2.43179
G1 X142.243 Y153.822 E2.47189
G1 X142.539 Y154.343 E2.50116
G1 X142.806 Y155.12 E2.54126
G1 X142.902 Y155.712 E2.57055
G1 X142.883 Y156.533 E2.61064
G1 X142.688 Y157.363 E2.65222
G1 X142.449 Y157.913 E2.68151
G1 X142.148 Y158.395 E2.70926
G1 X141.597 Y159.004 E2.74936
G1 X141.124 Y159.374 E2.77865
G1 X140.629 Y159.653 E2.80642
G1 X140.098 Y159.86 E2.8342
G1 X139.292 Y160.019 E2.8743
G1 X139.137 Y160.033 E2.88192
G1 X117.497 Y160.041 E3.93827
G1 X116.993 Y160.007 E3.96294
G1 X116.191 Y159.817 E4.00317
G1 X115.638 Y159.579 E4.03256
G1 X114.954 Y159.121 E4.07277
G1 X114.757 Y158.92 E4.0865
G1 X115.19 Y158.535 F18000
;TYPE:External perimeter
G1 F2700
G1 X114.786 Y158.11 E4.1151
G1 X114.408 Y157.485 E4.15074
G1 X114.222 Y156.997 E4.17624
G1 X114.098 Y156.318 E4.20995
G1 X114.093 Y155.652 E4.24244
G1 X114.137 Y155.054 E4.27172
G1 X114.172 Y154.845 E4.28206
G1 X114.382 Y154.213 E4.31458
G1 X114.627 Y153.756 E4.33987
G1 X115.064 Y153.211 E4.37397
G1 X115.628 Y152.748 E4.40961
G1 X116.11 Y152.485 E4.43642
G1 X116.743 Y152.274 E4.46898
G1 X117.466 Y152.189 E4.50452
G1 X137.781 Y152.188 E5.49619
G1 X138.373 Y152.241 E5.52524
G1 X139 Y152.414 E5.55698
G1 X140.343 Y152.937 E5.62736
G1 X140.958 Y153.304 E5.66231
G1 X141.369 Y153.666 E5.68903
G1 X141.783 Y154.187 E5.72152
G1 X142.042 Y154.669 E5.74824
G1 X142.248 Y155.302 E5.78074
G1 X142.323 Y155.819 E5.80625
G1 X142.296 Y156.509 E5.83996
G1 X142.12 Y157.215 E5.87546
G1 X141.896 Y157.704 E5.9017
G1 X141.623 Y158.117 E5.92589
G1 X141.168 Y158.603 E5.95838
G1 X140.738 Y158.926 E5.98462
G1 X140.31 Y159.155 E6.00832
G1 X139.844 Y159.323 E6.03254
G1 X139.187 Y159.441 E6.06508
G1 X117.497 Y159.454 E7.12389
G1 X116.984 Y159.413 E7.14905
G1 X116.337 Y159.248 E7.18165
G1 X115.836 Y159.019 E7.20849
G1 X115.252 Y158.6 E7.24363
G1 X114.634 Y158.719 F18000
G1 E6.49363 F600
G92 E0
G1 X104.063 Y159.709 F18000
G1 E.75 F600
;TYPE:Perimeter
G1 F3000
G1 X103.687 Y159.859 E.76974
G1 X102.879 Y160.019 E.80998
G1 X102.723 Y160.033 E.81763
G1 X81.082 Y160.041 E1.87401
G1 X80.579 Y160.007 E1.89862
G1 X80.022 Y159.895 E1.92639
G1 X79.486 Y159.705 E1.95414
G1 X78.772 Y159.3 E1.99422
G1 X78.133 Y158.735 E2.03583
G1 X77.629 Y158.049 E2.07742
G1 X77.281 Y157.271 E2.11901
G1 X77.137 Y156.681 E2.14864
G1 X77.09 Y155.868 E2.18841
G1 X77.217 Y155.026 E2.22995
G1 X77.519 Y154.23 E2.27156
G1 X77.828 Y153.716 E2.30083
G1 X78.373 Y153.101 E2.34093
G1 X78.841 Y152.726 E2.3702
G1 X79.653 Y152.301 E2.41493
G1 X80.972 Y151.802 E2.48379
G1 X81.498 Y151.667 E2.51027
G1 X82.219 Y151.6 E2.54566
G1 X102.503 Y151.6 E3.5358
G1 X103.006 Y151.634 E3.56044
G1 X103.809 Y151.825 E3.60069
G1 X104.361 Y152.062 E3.63006
G1 X105.046 Y152.52 E3.67027
G1 X105.643 Y153.131 E3.71198
G1 X105.968 Y153.64 E3.74145
G1 X106.175 Y154.029 E3.76296
G1 X106.386 Y154.661 E3.79549
G1 X106.497 Y155.506 E3.83708
G1 X106.495 Y156.22 E3.87193
G1 X106.362 Y157.071 E3.914
G1 X106.165 Y157.641 E3.94344
G1 X105.756 Y158.359 E3.98375
G1 X105.368 Y158.828 E4.01348
G1 X104.947 Y159.203 E4.04099
G1 X104.246 Y159.635 E4.0812
G1 X104.146 Y159.675 E4.08646
G1 X103.749 Y159.204 F18000
;TYPE:External perimeter
G1 F2700
G1 X103.432 Y159.323 E4.10301
G1 X102.722 Y159.446 E4.13814
G1 X81.082 Y159.454 E5.19452
G1 X80.58 Y159.415 E5.21912
G1 X80.106 Y159.31 E5.24282
G1 X79.643 Y159.133 E5.26701
G1 X79.071 Y158.794 E5.29948
G1 X78.532 Y158.305 E5.33501
G1 X78.11 Y157.712 E5.37051
G1 X77.823 Y157.044 E5.40602
G1 X77.71 Y156.555 E5.43054
G1 X77.677 Y155.844 E5.46524
G1 X77.795 Y155.127 E5.50073
G1 X78.063 Y154.451 E5.53625
G1 X78.356 Y153.988 E5.56297
G1 X78.806 Y153.497 E5.59547
G1 X79.224 Y153.175 E5.62124
G1 X79.831 Y152.864 E5.65456
G1 X81.18 Y152.351 E5.72501
G1 X81.632 Y152.24 E5.74773
G1 X82.219 Y152.188 E5.77651
G1 X102.503 Y152.188 E6.76666
G1 X103.016 Y152.228 E6.79178
G1 X103.663 Y152.393 E6.82441
G1 X104.163 Y152.622 E6.85122
G1 X104.711 Y153.002 E6.8838
G1 X105.213 Y153.531 E6.91941
G1 X105.592 Y154.155 E6.95504
G1 X105.829 Y154.846 E6.99068
G1 X105.913 Y155.569 E7.02619
G1 X105.908 Y156.213 E7.05763
G1 X105.784 Y156.966 E7.09491
G1 X105.615 Y157.438 E7.11936
G1 X105.251 Y158.059 E7.1545
G1 X104.925 Y158.442 E7.17909
G1 X104.521 Y158.79 E7.20509
G1 X103.947 Y159.13 E7.23768
G1 X103.834 Y159.173 E7.24357
G1 X103.708 Y159.541 F18000
G1 E6.49357 F600
G92 E0
G1 X184.957 Y162.104 F18000
G1 E.75 F600
;TYPE:Solid infill
;WIDTH:0.630628
G1 F2700
G1 X186.635 Y163.782 E.86595
G1 X186.635 Y164.613 E.90656
G1 X184.068 Y162.046 E1.08396
G1 X182.72 Y161.529 E1.15452
G1 X186.635 Y165.444 E1.42508
G1 X186.635 Y166.275 E1.4657
G1 X181.372 Y161.012 E1.82943
G1 X180.023 Y160.495 E1.89999
G1 X186.125 Y166.596 E2.32164
G1 X185.293 Y166.596 E2.36225
G1 X178.675 Y159.978 E2.81963
G1 X177.327 Y159.461 E2.89019
G1 X184.462 Y166.596 E3.38329
G1 X183.631 Y166.596 E3.4239
G1 X175.979 Y158.944 E3.95273
G1 X174.631 Y158.427 E4.02329
G1 X182.8 Y166.596 E4.58784
G1 X181.969 Y166.596 E4.62846
G1 X173.283 Y157.91 E5.22874
G1 X171.935 Y157.393 E5.2993
G1 X181.138 Y166.596 E5.9353
G1 X180.307 Y166.596 E5.97592
G1 X170.587 Y156.876 E6.64765
G1 X169.239 Y156.359 E6.71821
G1 X179.475 Y166.596 E7.42567
G1 X178.644 Y166.596 E7.46629
G1 X167.891 Y155.842 E8.20947
G1 X166.542 Y155.326 E8.28003
G1 X177.813 Y166.596 E9.05894
G1 X176.982 Y166.596 E9.09956
G1 X165.194 Y154.809 E9.9142
G1 X163.846 Y154.292 E9.98476
G1 X176.151 Y166.596 E10.83512
G1 X175.32 Y166.596 E10.87574
G1 X162.498 Y153.775 E11.76183
G1 X161.15 Y153.258 E11.83239
G1 X174.489 Y166.596 E12.75421
G1 X173.657 Y166.596 E12.79483
G1 X159.802 Y152.741 E13.75237
G1 X158.454 Y152.224 E13.82293
G1 X172.826 Y166.596 E14.8162
G1 X171.995 Y166.596 E14.85682
M73 P2 R62
G1 X157.106 Y151.707 E15.88582
G1 X155.758 Y151.19 E15.95638
G1 X171.164 Y166.596 E17.0211
G1 X170.333 Y166.596 E17.06172
G1 X154.41 Y150.673 E18.16217
G1 X153.061 Y150.156 E18.23273
G1 X169.502 Y166.596 E19.36891
G1 X168.671 Y166.596 E19.40952
G1 X151.713 Y149.639 E20.58143
G1 X150.365 Y149.122 E20.65199
G1 X167.839 Y166.596 E21.85962
G1 X167.008 Y166.596 E21.90023
G1 X149.017 Y148.605 E23.14359
G1 X147.669 Y148.088 E23.21415
G1 X166.177 Y166.596 E24.49323
G1 X165.346 Y166.596 E24.53385
G1 X146.321 Y147.571 E25.84866
G1 X144.973 Y147.054 E25.91922
G1 X164.515 Y166.596 E27.26976
G1 X163.684 Y166.596 E27.31037
G1 X143.625 Y146.537 E28.69664
G1 X142.277 Y146.02 E28.7672
G1 X162.853 Y166.596 E30.18919
G1 X162.021 Y166.596 E30.2298
G1 X140.929 Y145.503 E31.68752
G1 X139.733 Y145.045 E31.7501
G1 X139.639 Y145.045 E31.75469
G1 X161.19 Y166.596 E33.2441
G1 X160.359 Y166.596 E33.28472
G1 X138.808 Y145.045 E34.77412
G1 X137.977 Y145.045 E34.81474
G1 X159.528 Y166.596 E36.30414
G1 X158.697 Y166.596 E36.34476
G1 X137.146 Y145.045 E37.83417
G1 X136.314 Y145.045 E37.87478
G1 X157.866 Y166.596 E39.36419
G1 X157.034 Y166.596 E39.4048
G1 X135.483 Y145.045 E40.89421
G1 X134.652 Y145.045 E40.93483
G1 X156.203 Y166.596 E42.42423
