; generated by PrusaSlicer 2.5.0-alpha3+win64 on 2022-10-09 at 16:17:53 UTC


;
;
; 

; external perimeters extrusion width = 0.68mm
; perimeters extrusion width = 0.68mm
; infill extrusion width = 0.68mm
; solid infill extrusion width = 0.68mm
; top infill extrusion width = 0.60mm
; first layer extrusion width = 0.63mm

M73 P0 R100
M107
M190 S85 ; set bed temperature and wait for it to be reached
G10 S230 P1 ; set temperature
;TYPE:Custom
;Set standby temperatures
G10 R200 P0
G10 R215 P1
G28 ; home all axes
G32 ; run bed.g -- probe bed and enable compensation
;workaround for toolchanger when using only one extruder
T1; select tool
G10 S230 P1 ; set temperature
M116 ; wait for temperature to be reached
G21 ; set units to millimeters
G90 ; use absolute coordinates
M82 ; use absolute distances for extrusion
G92 E0
;tool change macro
T1
G92 E0
; Filament gcode
M107
;LAYER_CHANGE
;Z:0.2
;HEIGHT:0.2
G1 Z.2 F18000
G1 E-.75 F600
G92 E0
G1 X45.59 Y94.673 F18000
G1 E.75 F600
;TYPE:Skirt/Brim
;WIDTH:0.63
G1 F2700
G1 X49.382 Y92.847 E.95548
G1 X50.226 Y92.625 E.99807
G1 X51.08 Y92.595 E1.03981
G1 X51.703 Y92.698 E1.07064
G1 X52.829 Y93.092 E1.12886
G1 X53.432 Y93.438 E1.16282
G1 X53.989 Y93.914 E1.19856
G1 X54.549 Y94.657 E1.24398
G1 X58.275 Y102.458 E1.66597
G1 X58.405 Y103.06 E1.69605
G1 X58.442 Y103.665 E1.72563
G1 X58.322 Y104.536 E1.76857
G1 X57.836 Y105.844 E1.8367
G1 X57.483 Y106.385 E1.8682
G1 X57.067 Y106.843 E1.89846
G1 X56.373 Y107.359 E1.94065
G1 X28.457 Y120.8 E3.45312
G1 X44.247 Y153.59 E5.22973
G1 X72.16 Y140.149 E6.74207
G1 X73.004 Y139.927 E6.78464
G1 X73.858 Y139.897 E6.82638
G1 X74.485 Y140.002 E6.85743
G1 X75.784 Y140.479 E6.92498
G1 X76.346 Y140.84 E6.95759
G1 X76.76 Y141.21 E6.98469
G1 X77.138 Y141.657 E7.01325
G1 X77.961 Y143.287 E7.10239
G1 X79.472 Y143.636 E7.1781
G1 X80.166 Y143.943 E7.21513
G1 X80.833 Y144.421 E7.25519
G1 X81.305 Y144.929 E7.28908
G1 X82.08 Y146.221 E7.36258
G1 X82.246 Y146.735 E7.38896
G1 X82.348 Y147.317 E7.41782
G1 X82.365 Y147.903 E7.44644
G1 X75.429 Y178.456 E8.97586
G1 X110.911 Y186.555 E10.75251
G1 X117.8 Y156.366 E12.26408
G1 X118.033 Y155.772 E12.29522
G1 X118.482 Y155.083 E12.33535
G1 X118.904 Y154.629 E12.36565
G1 X120.055 Y153.857 E12.43328
G1 X120.6 Y153.61 E12.4625
G1 X121.473 Y153.419 E12.50614
G1 X122.181 Y153.408 E12.54068
G1 X123.877 Y153.77 E12.62533
G1 X125.076 Y152.82 E12.69999
G1 X125.722 Y152.473 E12.73582
G1 X126.379 Y152.27 E12.76936
G1 X127.046 Y152.182 E12.80221
G1 X128.645 Y152.358 E12.88077
G1 X129.23 Y152.566 E12.91104
G1 X129.77 Y152.86 E12.94108
G1 X130.477 Y153.457 E12.98624
G1 X149.792 Y177.679 E14.49857
G1 X178.248 Y154.986 E16.27529
G1 X158.744 Y130.468 E17.80469
G1 X158.504 Y129.933 E17.83331
G1 X158.343 Y129.364 E17.86218
G1 X158.27 Y128.828 E17.88856
G1 X158.408 Y127.329 E17.96207
G1 X158.613 Y126.666 E17.99595
G1 X159.007 Y125.946 E18.03602
G1 X159.499 Y125.368 E18.07305
G1 X160.704 Y124.402 E18.14845
G1 X160.737 Y122.575 E18.23765
G1 X160.883 Y122.008 E18.26622
G1 X161.096 Y121.495 E18.29334
G1 X161.445 Y120.926 E18.32596
G1 X162.408 Y119.931 E18.39353
G1 X162.928 Y119.565 E18.4246
G1 X163.711 Y119.221 E18.46635
G1 X164.568 Y119.055 E18.50894
G1 X195.55 Y119.055 E20.02134
G1 X195.55 Y82.661 E21.79794
G1 X164.568 Y82.661 E23.31035
G1 X163.665 Y82.481 E23.35528
G1 X163.144 Y82.265 E23.38284
G1 X162.642 Y81.97 E23.41128
G1 X161.626 Y81.011 E23.47947
G1 X161.099 Y80.229 E23.52546
G1 X160.883 Y79.707 E23.55304
G1 X160.736 Y79.14 E23.58167
G1 X160.698 Y70.428 E24.00693
G1 X160.825 Y69.697 E24.04318
G1 X161.096 Y68.994 E24.07994
G1 X161.626 Y68.205 E24.12635
G1 X162.642 Y67.246 E24.19453
G1 X163.144 Y66.95 E24.22297
G1 X163.666 Y66.734 E24.25054
G1 X164.568 Y66.555 E24.29546
G1 X207.3 Y66.563 E26.38144
G1 X208.029 Y66.701 E26.41767
G1 X208.658 Y66.95 E26.45068
G1 X209.243 Y67.309 E26.4842
G1 X210.237 Y68.273 E26.55179
G1 X210.71 Y68.997 E26.594
G1 X210.923 Y69.51 E26.62114
G1 X211.07 Y70.079 E26.6498
G1 X211.108 Y131.099 E29.62854
G1 X210.787 Y132.508 E29.6991
G1 X198.279 Y158.481 E31.10635
G1 X197.654 Y159.346 E31.15842
G1 X150.076 Y197.352 E34.13103
G1 X148.773 Y197.979 E34.20164
G1 X120.67 Y204.393 E35.60879
G1 X119.689 Y204.451 E35.65675
G1 X60.26 Y190.952 E38.63173
G1 X59.351 Y190.579 E38.67973
G1 X36.387 Y172.344 E40.11116
G1 X35.728 Y171.612 E40.15924
G1 X9.139 Y116.539 E43.14458
G1 X8.963 Y115.988 E43.17284
G1 X8.872 Y115.111 E43.21589
G1 X8.919 Y114.493 E43.24613
G1 X9.342 Y113.158 E43.31449
G1 X9.824 Y112.338 E43.3609
G1 X10.339 Y111.79 E43.39765
G1 X10.94 Y111.359 E43.43377
G1 X45.508 Y94.712 E45.3067
G1 X45.763 Y95.241 F18000
G1 F2700
G1 X49.612 Y93.388 E45.51523
G1 X50.283 Y93.21 E45.54914
G1 X51.019 Y93.179 E45.58508
G1 X51.535 Y93.261 E45.6106
G1 X52.608 Y93.637 E45.66607
G1 X53.111 Y93.931 E45.69453
G1 X53.58 Y94.337 E45.72483
G1 X54.032 Y94.936 E45.76146
G1 X57.728 Y102.676 E46.18018
G1 X57.826 Y103.153 E46.20395
G1 X57.854 Y103.667 E46.22904
G1 X57.746 Y104.419 E46.26615
G1 X57.299 Y105.605 E46.32801
G1 X57.031 Y106.01 E46.3517
G1 X56.689 Y106.393 E46.37679
G1 X56.091 Y106.843 E46.4133
G1 X27.673 Y120.526 E47.95299
G1 X43.973 Y154.374 E49.78691
G1 X72.39 Y140.69 E51.32656
G1 X73.061 Y140.512 E51.36045
G1 X73.797 Y140.481 E51.39639
G1 X74.313 Y140.564 E51.42194
G1 X75.498 Y140.992 E51.48343
G1 X75.973 Y141.295 E51.51093
G1 X76.353 Y141.633 E51.53576
G1 X76.665 Y142.006 E51.55951
G1 X77.558 Y143.796 E51.65716
G1 X79.31 Y144.202 E51.74497
G1 X79.895 Y144.465 E51.77628
G1 X80.462 Y144.877 E51.81047
G1 X80.852 Y145.303 E51.83868
G1 X81.532 Y146.433 E51.90306
G1 X81.681 Y146.894 E51.92672
G1 X81.765 Y147.393 E51.95141
G1 X81.777 Y147.88 E51.97519
G1 X74.726 Y178.898 E53.52797
G1 X111.353 Y187.258 E55.36192
G1 X118.368 Y156.517 E56.90116
G1 X118.542 Y156.066 E56.92474
G1 X118.959 Y155.426 E56.96201
G1 X119.307 Y155.057 E56.98678
G1 X120.357 Y154.361 E57.0483
G1 X120.809 Y154.159 E57.07245
G1 X121.564 Y154 E57.11011
G1 X122.151 Y153.995 E57.13877
G1 X124.024 Y154.404 E57.23237
G1 X125.377 Y153.325 E57.31682
G1 X125.973 Y153.005 E57.34984
G1 X126.526 Y152.839 E57.37805
G1 X127.022 Y152.769 E57.40247
G1 X128.485 Y152.924 E57.47432
G1 X128.971 Y153.094 E57.49942
G1 X129.463 Y153.362 E57.52679
G1 X130.036 Y153.845 E57.56339
G1 X149.7 Y178.504 E59.10298
G1 X179.073 Y155.079 E60.937
G1 X159.263 Y130.192 E62.48977
G1 X159.062 Y129.749 E62.51355
G1 X158.922 Y129.262 E62.53824
G1 X158.856 Y128.782 E62.5619
G1 X158.978 Y127.469 E62.62628
G1 X159.145 Y126.916 E62.65449
G1 X159.477 Y126.299 E62.68869
G1 X159.889 Y125.808 E62.72
G1 X161.288 Y124.686 E62.80751
G1 X161.314 Y122.684 E62.90524
G1 X161.434 Y122.213 E62.92899
G1 X161.629 Y121.743 E62.95383
G1 X161.926 Y121.264 E62.98134
G1 X162.807 Y120.363 E63.04285
G1 X163.237 Y120.065 E63.06842
G1 X163.914 Y119.773 E63.10436
G1 X164.596 Y119.642 E63.13827
G1 X196.137 Y119.642 E64.67799
G1 X196.137 Y82.074 E66.5119
G1 X164.597 Y82.074 E68.05156
G1 X163.863 Y81.928 E68.08807
G1 X163.389 Y81.731 E68.11316
G1 X162.972 Y81.483 E68.13684
G1 X162.055 Y80.609 E68.19869
G1 X161.631 Y79.978 E68.2358
G1 X161.434 Y79.503 E68.26089
G1 X161.314 Y79.031 E68.28465
G1 X161.285 Y70.454 E68.70335
G1 X161.397 Y69.831 E68.73424
G1 X161.63 Y69.239 E68.76529
G1 X162.055 Y68.607 E68.80248
G1 X162.972 Y67.733 E68.86432
G1 X163.389 Y67.484 E68.88801
G1 X163.864 Y67.288 E68.9131
G1 X164.597 Y67.142 E68.94961
G1 X207.272 Y67.15 E71.03281
G1 X207.839 Y67.258 E71.06099
G1 X208.416 Y67.486 E71.09131
G1 X208.904 Y67.789 E71.11936
G1 X209.802 Y68.669 E71.18073
G1 X210.178 Y69.246 E71.21434
G1 X210.372 Y69.715 E71.2391
G1 X210.492 Y70.187 E71.26287
G1 X210.521 Y131.066 E74.23473
G1 X210.243 Y132.283 E74.29567
G1 X197.76 Y158.204 E75.70014
G1 X197.255 Y158.913 E75.74261
G1 X149.736 Y196.872 E78.71157
G1 X148.611 Y197.414 E78.77254
M73 P0 R99
G1 X120.564 Y203.815 E80.17684
G1 X119.698 Y203.863 E80.21918
G1 X60.416 Y190.385 E83.18698
G1 X59.614 Y190.053 E83.22934
G1 X36.773 Y171.9 E84.65359
G1 X36.194 Y171.252 E84.69601
G1 X9.677 Y116.304 E87.67433
G1 X9.532 Y115.843 E87.69794
G1 X9.459 Y115.083 E87.73522
G1 X9.501 Y114.577 E87.75999
G1 X9.891 Y113.37 E87.8219
G1 X10.276 Y112.713 E87.85909
G1 X10.709 Y112.247 E87.89013
G1 X11.219 Y111.876 E87.92095
G1 X45.682 Y95.28 E89.78817
G1 X45.937 Y95.809 F18000
G1 F2700
G1 X49.84 Y93.93 E89.99962
G1 X50.398 Y93.786 E90.02777
G1 X50.96 Y93.764 E90.05525
G1 X51.369 Y93.825 E90.0754
G1 X52.385 Y94.181 E90.12794
G1 X52.786 Y94.42 E90.15073
G1 X53.17 Y94.757 E90.17569
G1 X53.515 Y95.216 E90.20374
G1 X57.162 Y102.832 E90.61594
G1 X57.241 Y103.209 E90.63475
G1 X57.267 Y103.671 E90.65731
G1 X57.185 Y104.246 E90.68565
G1 X56.789 Y105.313 E90.74122
G1 X56.578 Y105.636 E90.76003
G1 X56.27 Y105.98 E90.78259
G1 X55.811 Y106.326 E90.81068
G1 X26.89 Y120.251 E92.37761
G1 X43.699 Y155.157 E94.26885
G1 X72.618 Y141.232 E95.8357
G1 X73.176 Y141.088 E95.86383
G1 X73.738 Y141.066 E95.89131
G1 X74.145 Y141.127 E95.91141
G1 X75.215 Y141.508 E95.96684
G1 X75.602 Y141.75 E95.9891
G1 X75.945 Y142.056 E96.01154
G1 X76.19 Y142.353 E96.03035
G1 X77.154 Y144.306 E96.13665
G1 X79.148 Y144.767 E96.23655
G1 X79.62 Y144.984 E96.26194
G1 X80.087 Y145.329 E96.29028
G1 X80.396 Y145.674 E96.31288
G1 X80.985 Y146.65 E96.36852
G1 X81.106 Y147.015 E96.38732
G1 X81.183 Y147.469 E96.40977
G1 X81.19 Y147.854 E96.42858
G1 X74.024 Y179.34 E98.00488
G1 X111.795 Y187.961 E99.89613
G1 X118.935 Y156.67 E101.4629
G1 X119.076 Y156.312 E101.48169
G1 X119.432 Y155.774 E101.51317
G1 X119.706 Y155.489 E101.53247
G1 X120.657 Y154.867 E101.58793
G1 X121.014 Y154.71 E101.60696
G1 X121.649 Y154.581 E101.63862
G1 X122.116 Y154.582 E101.66143
G1 X124.17 Y155.038 E101.76413
G1 X125.722 Y153.8 E101.86105
G1 X126.171 Y153.559 E101.8859
G1 X126.672 Y153.408 E101.91146
G1 X127.063 Y153.356 E101.93072
G1 X128.328 Y153.49 E101.9928
G1 X128.713 Y153.622 E102.01267
G1 X129.156 Y153.863 E102.03732
G1 X129.595 Y154.234 E102.06535
G1 X149.607 Y179.329 E103.63219
G1 X179.898 Y155.172 E105.52352
G1 X159.781 Y129.914 E107.09981
G1 X159.62 Y129.564 E107.11862
G1 X159.493 Y129.122 E107.14106
G1 X159.443 Y128.74 E107.15987
G1 X159.55 Y127.605 E107.21551
G1 X159.679 Y127.161 E107.23811
G1 X159.95 Y126.647 E107.26645
G1 X160.281 Y126.246 E107.29184
G1 X161.873 Y124.97 E107.39145
G1 X161.893 Y122.79 E107.49784
G1 X161.985 Y122.416 E107.51665
G1 X162.161 Y121.991 E107.5391
G1 X162.404 Y121.605 E107.56138
G1 X163.203 Y120.798 E107.61682
G1 X163.544 Y120.566 E107.63693
G1 X164.06 Y120.342 E107.66442
G1 X164.626 Y120.229 E107.69256
G1 X196.724 Y120.229 E109.25947
G1 X196.724 Y81.487 E111.1507
G1 X164.626 Y81.487 E112.71762
G1 X164.061 Y81.375 E112.7457
G1 X163.634 Y81.198 E112.76826
G1 X163.305 Y80.999 E112.78706
G1 X162.485 Y80.209 E112.84262
G1 X162.162 Y79.726 E112.87096
G1 X161.985 Y79.3 E112.89351
G1 X161.893 Y78.926 E112.91232
G1 X161.872 Y70.482 E113.32452
G1 X161.968 Y69.971 E113.34991
G1 X162.163 Y69.488 E113.37531
G1 X162.485 Y69.007 E113.40358
G1 X163.305 Y68.217 E113.45914
G1 X163.635 Y68.018 E113.47794
G1 X164.062 Y67.841 E113.5005
G1 X164.626 Y67.729 E113.52859
G1 X207.244 Y67.737 E115.60902
G1 X207.649 Y67.814 E115.62915
G1 X208.174 Y68.021 E115.65671
G1 X208.562 Y68.267 E115.67913
G1 X209.366 Y69.063 E115.73437
G1 X209.646 Y69.495 E115.75948
G1 X209.821 Y69.918 E115.78184
G1 X209.913 Y70.292 E115.80064
G1 X209.934 Y131.033 E118.76576
G1 X209.7 Y132.058 E118.81707
G1 X197.243 Y157.926 E120.21865
G1 X196.803 Y158.537 E120.25541
G1 X149.395 Y196.393 E123.21694
G1 X148.448 Y196.849 E123.26828
G1 X120.455 Y203.238 E124.66989
G1 X119.786 Y203.281 E124.70264
G1 X60.567 Y189.817 E127.66721
G1 X59.945 Y189.566 E127.69998
G1 X37.155 Y171.454 E129.12101
G1 X36.703 Y170.957 E129.1538
G1 X10.216 Y116.07 E132.12886
G1 X10.103 Y115.702 E132.14766
M73 P1 R99
G1 X10.046 Y115.059 E132.17914
G1 X10.082 Y114.665 E132.19845
G1 X10.438 Y113.584 E132.25401
G1 X10.731 Y113.085 E132.28228
G1 X11.082 Y112.701 E132.30768
G1 X11.5 Y112.392 E132.33303
G1 X45.856 Y95.848 E134.19446
G1 X46.11 Y96.377 F18000
G1 F2700
G1 X50.068 Y94.471 E134.40891
G1 X50.457 Y94.371 E134.42851
G1 X50.911 Y94.349 E134.45067
G1 X51.204 Y94.39 E134.46514
G1 X52.159 Y94.724 E134.51453
G1 X52.454 Y94.904 E134.53139
G1 X52.756 Y95.175 E134.5512
G1 X52.999 Y95.497 E134.57086
G1 X56.596 Y102.992 E134.97673
G1 X56.656 Y103.267 E134.99046
G1 X56.679 Y103.675 E135.01041
G1 X56.622 Y104.075 E135.03011
G1 X56.276 Y105.025 E135.0795
G1 X56.124 Y105.263 E135.09326
G1 X55.852 Y105.567 E135.11321
G1 X55.53 Y105.81 E135.13288
G1 X26.106 Y119.977 E136.72707
G1 X43.424 Y155.941 E138.67562
G1 X72.846 Y141.773 E140.26972
G1 X73.235 Y141.673 E140.28932
G1 X73.688 Y141.652 E140.31148
G1 X73.982 Y141.692 E140.32595
G1 X74.937 Y142.026 E140.37532
G1 X75.231 Y142.206 E140.39218
G1 X75.535 Y142.477 E140.41207
G1 X75.713 Y142.696 E140.42581
G1 X76.749 Y144.816 E140.54101
G1 X78.936 Y145.315 E140.65051
G1 X79.303 Y145.479 E140.6701
G1 X79.676 Y145.75 E140.69265
G1 X79.912 Y146.006 E140.70963
G1 X80.44 Y146.871 E140.75912
G1 X80.531 Y147.138 E140.77288
G1 X80.6 Y147.543 E140.79292
G1 X80.602 Y147.824 E140.80664
G1 X73.321 Y179.781 E142.40666
G1 X112.236 Y188.664 E144.35522
G1 X119.502 Y156.825 E145.94945
G1 X119.608 Y156.563 E145.96325
G1 X119.902 Y156.127 E145.9889
G1 X120.101 Y155.924 E146.00276
G1 X120.952 Y155.375 E146.05222
G1 X121.213 Y155.264 E146.06605
G1 X121.729 Y155.164 E146.0917
G1 X122.076 Y155.168 E146.10868
G1 X124.316 Y155.673 E146.22074
G1 X126.068 Y154.275 E146.33019
G1 X126.369 Y154.112 E146.34688
G1 X126.816 Y153.977 E146.36969
G1 X127.099 Y153.943 E146.38357
G1 X128.224 Y154.069 E146.43888
G1 X128.489 Y154.165 E146.45259
G1 X128.847 Y154.362 E146.47254
G1 X129.154 Y154.622 E146.49221
G1 X149.514 Y180.154 E148.0863
G1 X180.723 Y155.265 E150.03493
G1 X160.297 Y129.632 E151.63494
G1 X160.177 Y129.378 E151.64866
G1 X160.064 Y128.983 E151.6687
G1 X160.029 Y128.703 E151.68247
G1 X160.131 Y127.695 E151.73195
G1 X160.231 Y127.362 E151.74893
G1 X160.451 Y126.955 E151.77149
G1 X160.709 Y126.648 E151.79107
G1 X162.459 Y125.254 E151.9003
G1 X162.472 Y122.892 E152.01559
G1 X162.537 Y122.618 E152.02933
G1 X162.693 Y122.241 E152.04923
G1 X162.88 Y121.951 E152.0661
G1 X163.595 Y121.235 E152.11549
G1 X163.843 Y121.072 E152.12997
G1 X164.261 Y120.894 E152.15213
G1 X164.654 Y120.816 E152.17173
G1 X197.311 Y120.816 E153.7659
G1 X197.311 Y80.9 E155.71445
G1 X164.654 Y80.9 E157.30861
G1 X164.259 Y80.821 E157.32828
G1 X163.882 Y80.665 E157.34822
G1 X163.642 Y80.517 E157.36199
G1 X162.918 Y79.811 E157.41136
G1 X162.693 Y79.475 E157.43107
G1 X162.537 Y79.098 E157.45101
G1 X162.472 Y78.824 E157.46473
G1 X162.459 Y70.511 E157.87053
G1 X162.538 Y70.116 E157.8902
G1 X162.693 Y69.741 E157.91005
G1 X162.918 Y69.405 E157.92975
G1 X163.642 Y68.699 E157.97913
G1 X163.882 Y68.551 E157.99289
G1 X164.259 Y68.395 E158.01284
G1 X164.655 Y68.316 E158.03251
G1 X207.212 Y68.324 E160.10999
G1 X207.502 Y68.383 E160.12445
G1 X207.925 Y68.554 E160.14672
G1 X208.215 Y68.741 E160.16356
G1 X208.928 Y69.455 E160.21279
G1 X209.113 Y69.743 E160.22953
G1 X209.269 Y70.12 E160.24944
G1 X209.334 Y70.393 E160.26315
G1 X209.347 Y131 E163.22172
G1 X209.157 Y131.833 E163.26342
G1 X196.723 Y157.65 E164.66226
G1 X196.403 Y158.105 E164.68943
G1 X149.055 Y195.914 E167.64724
G1 X148.285 Y196.284 E167.68895
G1 X120.349 Y202.66 E169.08773
G1 X119.794 Y202.692 E169.1149
G1 X60.722 Y189.251 E172.07224
G1 X60.207 Y189.039 E172.09942
G1 X37.541 Y171.011 E173.51321
G1 X37.168 Y170.596 E173.54041
G1 X10.756 Y115.837 E176.50824
G1 X10.675 Y115.566 E176.52205
G1 X10.633 Y115.042 E176.5477
G1 X10.662 Y114.76 E176.56156
G1 X10.984 Y113.801 E176.61092
G1 X11.189 Y113.454 E176.63062
G1 X11.46 Y113.15 E176.65047
G1 X11.782 Y112.908 E176.67014
G1 X46.029 Y96.416 E178.52569
G1 X46.284 Y96.945 F18000
G1 F2700
G1 X50.297 Y95.013 E178.74313
G1 X50.52 Y94.955 E178.75437
G1 X50.872 Y94.936 E178.77158
G1 X51.044 Y94.956 E178.78002
G1 X51.934 Y95.267 E178.82605
G1 X52.081 Y95.358 E178.83449
G1 X52.344 Y95.593 E178.85171
G1 X52.482 Y95.777 E178.86294
G1 X56.032 Y103.158 E179.26278
